svg/add-shield.svg

<?xml version="1.0" encoding="UTF-8"?>
<svg xmlns="http://www.w3.org/2000/svg" xmlns:xlink="http://www.w3.org/1999/xlink" width="32" height="32" viewBox="0 0 32 32">
<defs>
<clipPath id="clip-0">
<path clip-rule="nonzero" d="M 1 0 L 31 0 L 31 32 L 1 32 Z M 1 0 "/>
</clipPath>
<clipPath id="clip-1">
<path clip-rule="nonzero" d="M 0 32 L 0 0 L 32 0 L 32 32 Z M 16 8.574219 C 12.621094 8.574219 9.855469 11.339844 9.855469 14.71875 C 9.855469 18.097656 12.621094 20.863281 16 20.863281 C 19.378906 20.863281 22.144531 18.097656 22.144531 14.71875 C 22.144531 11.339844 19.378906 8.574219 16 8.574219 M 16 8.574219 "/>
</clipPath>
</defs>
<g clip-path="url(#clip-0)">
<g clip-path="url(#clip-1)">
<path fill-rule="nonzero" fill="rgb(0%, 0%, 0%)" fill-opacity="1" d="M 16.011719 31.875 L 15.734375 31.746094 C 15.59375 31.683594 1.921875 25.140625 1.921875 5.648438 L 1.921875 5.132812 L 2.421875 5.023438 C 7.160156 3.984375 9.957031 2.511719 12 1.433594 C 13.585938 0.601562 14.734375 0 16 0 C 17.265625 0 18.414062 0.601562 20 1.433594 C 22.042969 2.511719 24.839844 3.984375 29.578125 5.023438 L 30.078125 5.132812 L 30.078125 5.648438 C 30.078125 24.496094 16.425781 31.664062 16.289062 31.734375 Z M 16.011719 31.875 "/>
</g>
</g>
<path fill-rule="nonzero" fill="rgb(0%, 0%, 0%)" fill-opacity="1" d="M 16 9.601562 C 13.183594 9.601562 10.878906 11.902344 10.878906 14.71875 C 10.878906 17.535156 13.183594 19.839844 16 19.839844 C 18.816406 19.839844 21.121094 17.535156 21.121094 14.71875 C 21.121094 11.902344 18.816406 9.601562 16 9.601562 M 18.507812 15.230469 L 16.511719 15.230469 L 16.511719 17.230469 C 16.511719 17.535156 16.308594 17.742188 16 17.742188 C 15.691406 17.742188 15.488281 17.535156 15.488281 17.230469 L 15.488281 15.230469 L 13.492188 15.230469 C 13.183594 15.230469 12.980469 15.027344 12.980469 14.71875 C 12.980469 14.414062 13.183594 14.207031 13.492188 14.207031 L 15.488281 14.207031 L 15.488281 12.160156 C 15.488281 11.851562 15.691406 11.648438 16 11.648438 C 16.308594 11.648438 16.511719 11.851562 16.511719 12.160156 L 16.511719 14.207031 L 18.507812 14.207031 C 18.816406 14.207031 19.019531 14.414062 19.019531 14.71875 C 19.019531 15.027344 18.816406 15.230469 18.507812 15.230469 M 18.507812 15.230469 "/>
</svg>

<svg role="img" viewBox="0 0 32 32" height="32" width="32" xmlns="http://www.w3.org/2000/svg"><defs><clipPath id="389__387__164__162__130__128__clip-0"><path d="M1 0h30v32H1Zm0 0"/></clipPath><clipPath id="390__388__165__163__131__129__clip-1"><path d="M0 32V0h32v32ZM16 8.574c-3.379 0-6.145 2.766-6.145 6.145 0 3.379 2.766 6.144 6.145 6.144 3.379 0 6.145-2.765 6.145-6.144 0-3.38-2.766-6.145-6.145-6.145m0 0"/></clipPath></defs><g clip-path="url(#389__387__164__162__130__128__clip-0)"><g clip-path="url(#390__388__165__163__131__129__clip-1)"><path d="m16.012 31.875-.278-.129c-.14-.062-13.812-6.605-13.812-26.098v-.515l.5-.11C7.16 3.984 9.957 2.512 12 1.433 13.586.603 14.734 0 16 0s2.414.602 4 1.434c2.043 1.078 4.84 2.55 9.578 3.59l.5.109v.515c0 18.848-13.652 26.016-13.789 26.086Zm0 0"/></g></g><path d="M16 9.602c-2.816 0-5.121 2.3-5.121 5.117 0 2.816 2.305 5.12 5.121 5.12 2.816 0 5.121-2.304 5.121-5.12 0-2.817-2.305-5.117-5.121-5.117m2.508 5.628h-1.996v2c0 .305-.203.512-.512.512s-.512-.207-.512-.512v-2h-1.996c-.308 0-.512-.203-.512-.511 0-.305.204-.512.512-.512h1.996V12.16c0-.308.203-.512.512-.512s.512.204.512.512v2.047h1.996c.308 0 .512.207.512.512 0 .308-.204.511-.512.511m0 0"/></svg>
